svg/color/gal.svg

<?xml version="1.0" encoding="UTF-8" ?>
<!DOCTYPE svg PUBLIC "-//W3C//DTD SVG 1.1//EN" "http://www.w3.org/Graphics/SVG/1.1/DTD/svg11.dtd">
<svg width="250pt" height="250pt" viewBox="0 0 250 250" version="1.1" xmlns="http://www.w3.org/2000/svg">
<g id="#ffffffff">
<path fill="#ffffff" opacity="1.00" d=" M 0.00 0.00 L 117.62 0.00 C 102.37 1.25 87.23 4.71 73.30 11.14 C 45.34 23.75 22.41 47.04 10.28 75.22 C 4.38 88.58 1.22 103.01 0.00 117.52 L 0.00 0.00 Z" />
<path fill="#ffffff" opacity="1.00" d=" M 129.68 0.00 L 250.00 0.00 L 250.00 119.52 C 248.54 85.51 232.58 52.39 206.64 30.31 C 185.41 11.84 157.77 1.05 129.68 0.00 Z" />
<path fill="#ffffff" opacity="1.00" d=" M 100.81 23.98 C 103.74 27.72 106.53 31.57 109.21 35.48 C 113.31 34.42 117.26 32.87 121.40 31.98 C 119.23 34.98 116.82 37.79 114.69 40.80 C 113.70 41.71 114.89 42.82 115.33 43.64 C 117.29 46.45 119.35 49.19 121.25 52.05 C 117.04 51.32 112.97 50.03 108.86 48.91 C 105.75 52.07 103.08 55.60 100.20 58.96 C 99.85 54.73 100.80 50.21 99.72 46.16 C 96.25 44.39 92.27 43.80 88.69 42.26 C 92.47 40.60 96.51 39.67 100.40 38.32 C 100.52 33.54 100.57 28.76 100.81 23.98 Z" />
<path fill="#ffffff" opacity="1.00" d=" M 140.80 35.25 C 143.74 31.53 146.38 27.57 149.24 23.79 C 149.41 28.63 149.51 33.48 149.62 38.33 C 153.58 39.63 157.60 40.77 161.53 42.17 C 157.87 43.76 153.81 44.39 150.25 46.18 C 149.25 50.21 150.19 54.73 149.80 58.94 C 147.04 55.78 144.55 52.37 141.63 49.35 C 137.25 49.24 133.11 51.71 128.69 52.00 C 131.16 48.65 133.51 45.21 135.97 41.85 C 133.71 38.41 131.06 35.26 128.56 31.99 C 132.75 32.62 136.63 34.83 140.80 35.25 Z" />
<path fill="#ffffff" opacity="1.00" d=" M 74.03 55.66 C 76.81 52.44 79.68 49.31 82.56 46.19 C 82.24 50.19 81.38 54.15 81.29 58.17 C 84.45 60.90 89.08 61.59 92.59 64.01 C 88.40 65.36 84.05 66.20 79.93 67.78 C 79.37 71.93 79.12 76.20 77.71 80.18 C 75.51 76.61 73.48 72.96 71.30 69.39 C 67.31 70.34 63.32 71.33 59.27 71.96 C 62.07 68.90 64.86 65.83 67.66 62.78 C 65.53 58.48 62.90 54.44 60.92 50.07 C 65.33 51.84 69.65 53.83 74.03 55.66 Z" />
<path fill="#ffffff" opacity="1.00" d=" M 168.73 58.18 C 168.61 54.16 167.75 50.20 167.46 46.19 C 170.32 49.33 173.21 52.44 175.97 55.66 C 180.36 53.82 184.68 51.85 189.09 50.06 C 187.34 54.53 183.95 58.38 182.64 62.91 C 185.13 66.11 188.05 68.93 190.76 71.94 C 186.69 71.35 182.70 70.35 178.70 69.39 C 176.32 72.87 174.82 76.98 171.89 80.06 C 171.23 75.86 170.58 71.66 169.77 67.48 C 165.55 66.33 161.34 65.11 157.09 64.06 C 160.78 61.77 165.43 60.88 168.73 58.18 Z" />
<path fill="#ffffff" opacity="1.00" d=" M 89.42 76.39 C 98.95 67.29 111.83 61.43 125.13 61.47 C 134.47 61.52 143.68 64.41 151.56 69.38 C 163.75 77.11 172.80 89.08 178.58 102.18 C 187.49 122.43 189.32 145.56 184.59 167.12 C 180.80 184.18 172.58 200.68 159.41 212.42 C 150.04 220.82 137.79 226.11 125.13 226.26 C 116.01 226.11 106.94 223.55 99.18 218.74 C 86.62 211.11 77.41 198.89 71.47 185.61 C 62.11 164.29 60.50 139.82 66.20 117.30 C 70.15 101.97 77.72 87.25 89.42 76.39 M 114.99 85.84 C 107.64 89.58 102.69 97.74 103.15 106.04 C 103.06 111.40 105.37 116.57 108.86 120.55 C 106.79 120.55 104.99 122.13 103.16 123.03 C 92.01 129.55 84.06 141.32 82.39 154.15 C 80.33 167.28 84.92 181.26 94.35 190.64 C 102.27 198.85 113.60 203.66 125.02 203.62 C 138.87 203.84 152.60 196.81 160.53 185.46 C 167.77 175.49 170.26 162.36 167.50 150.38 C 163.57 150.40 159.65 150.38 155.73 150.40 C 154.41 146.65 152.58 143.06 150.01 140.01 C 146.37 135.53 141.33 132.58 136.85 129.05 C 141.36 130.81 145.46 133.46 148.96 136.81 C 151.24 134.43 153.55 132.08 155.91 129.78 C 146.92 120.38 133.40 115.79 120.52 117.30 C 115.90 114.58 112.06 109.57 113.01 103.94 C 113.72 97.70 119.75 92.61 126.06 93.26 C 132.50 93.38 137.48 99.32 137.80 105.53 C 141.07 105.54 144.34 105.54 147.61 105.52 C 147.34 99.06 144.59 92.65 139.52 88.52 C 132.89 82.76 122.72 81.69 114.99 85.84 Z" />
<path fill="#ffffff" opacity="1.00" d=" M 94.48 147.57 C 98.53 137.49 107.82 130.14 118.27 127.56 C 124.89 131.97 131.51 136.42 138.12 140.85 C 141.68 143.16 144.30 146.63 146.11 150.43 C 146.27 153.74 146.16 157.05 146.19 160.37 L 148.56 160.36 C 148.17 166.12 146.26 171.94 142.12 176.11 C 135.96 182.92 125.55 185.36 117.02 181.95 C 108.80 178.91 102.65 170.81 102.21 162.02 C 101.88 158.07 102.84 154.17 104.02 150.43 C 100.84 150.43 97.67 150.43 94.50 150.44 C 91.55 161.36 93.84 173.87 101.86 182.12 C 111.32 192.67 128.08 195.42 140.43 188.48 C 150.77 183.15 157.11 171.85 157.41 160.35 C 157.73 160.35 158.36 160.36 158.68 160.36 C 158.51 171.19 153.02 181.87 143.93 187.88 C 131.94 196.30 114.45 195.30 103.52 185.54 C 92.76 176.54 88.91 160.45 94.48 147.57 M 108.82 153.30 C 109.52 153.37 110.92 153.51 111.62 153.58 C 111.62 155.94 111.61 158.30 111.65 160.67 C 112.15 160.54 113.17 160.28 113.68 160.15 C 113.85 156.75 113.72 153.36 113.65 149.97 C 111.95 150.93 110.14 151.82 108.82 153.30 M 117.53 157.34 C 118.39 157.30 120.11 157.22 120.97 157.18 C 119.71 159.67 117.43 158.64 115.34 157.78 C 115.78 161.07 118.89 160.93 121.27 160.39 C 123.06 156.85 123.69 150.97 118.95 149.52 C 115.30 150.47 114.31 155.23 117.53 157.34 M 125.27 150.43 C 122.89 152.02 123.43 155.61 123.70 158.10 C 123.95 161.24 129.02 161.81 130.01 158.91 C 130.77 156.26 130.99 152.91 129.18 150.61 C 127.96 150.03 126.52 149.85 125.27 150.43 M 132.05 150.65 C 132.71 151.29 133.40 151.91 134.10 152.52 C 135.05 152.41 136.97 152.20 137.92 152.09 C 137.91 151.62 137.88 150.67 137.87 150.20 C 135.92 150.23 133.97 150.33 132.05 150.65 M 131.91 152.32 C 129.23 157.24 133.59 155.40 135.62 155.45 C 136.73 156.47 136.52 158.48 135.03 159.05 C 133.85 158.50 132.69 157.93 131.54 157.32 C 130.59 161.05 136.81 162.12 138.00 158.91 C 139.84 155.95 136.70 152.35 133.47 153.75 C 132.94 153.27 132.43 152.80 131.91 152.32 Z" />
<path fill="#ffffff" opacity="1.00" d=" M 0.00 130.61 C 1.49 164.08 16.99 196.67 42.25 218.72 C 63.15 237.38 90.49 248.33 118.41 250.00 L 0.00 250.00 L 0.00 130.61 Z" />
<path fill="#ffffff" opacity="1.00" d=" M 220.16 206.09 C 238.15 185.21 248.66 158.19 250.00 130.69 L 250.00 250.00 L 129.72 250.00 C 164.23 248.79 197.91 232.53 220.16 206.09 Z" />
<path fill="#ffffff" opacity="1.00" d=" M 117.68 152.66 C 118.68 150.84 121.39 152.56 120.37 154.49 C 119.36 156.66 116.41 154.46 117.68 152.66 Z" />
<path fill="#ffffff" opacity="1.00" d=" M 125.97 152.20 C 129.29 151.19 128.38 155.57 128.29 157.54 C 128.41 158.87 126.43 159.25 125.83 158.20 C 125.40 156.23 125.43 154.14 125.97 152.20 Z" />
</g>
<g id="#fcb813ff">
<path fill="#fcb813" opacity="1.00" d=" M 117.62 0.00 L 125.14 0.00 C 125.14 20.49 125.16 40.98 125.13 61.47 C 111.83 61.43 98.95 67.29 89.42 76.39 C 77.72 87.25 70.15 101.97 66.20 117.30 C 60.50 139.82 62.11 164.29 71.47 185.61 C 77.41 198.89 86.62 211.11 99.18 218.74 C 106.94 223.55 116.01 226.11 125.13 226.26 C 125.16 234.17 125.14 242.09 125.15 250.00 L 118.41 250.00 C 90.49 248.33 63.15 237.38 42.25 218.72 C 16.99 196.67 1.49 164.08 0.00 130.61 L 0.00 117.52 C 1.22 103.01 4.38 88.58 10.28 75.22 C 22.41 47.04 45.34 23.75 73.30 11.14 C 87.23 4.71 102.37 1.25 117.62 0.00 M 100.81 23.98 C 100.57 28.76 100.52 33.54 100.40 38.32 C 96.51 39.67 92.47 40.60 88.69 42.26 C 92.27 43.80 96.25 44.39 99.72 46.16 C 100.80 50.21 99.85 54.73 100.20 58.96 C 103.08 55.60 105.75 52.07 108.86 48.91 C 112.97 50.03 117.04 51.32 121.25 52.05 C 119.35 49.19 117.29 46.45 115.33 43.64 C 114.89 42.82 113.70 41.71 114.69 40.80 C 116.82 37.79 119.23 34.98 121.40 31.98 C 117.26 32.87 113.31 34.42 109.21 35.48 C 106.53 31.57 103.74 27.72 100.81 23.98 M 74.03 55.66 C 69.65 53.83 65.33 51.84 60.92 50.07 C 62.90 54.44 65.53 58.48 67.66 62.78 C 64.86 65.83 62.07 68.90 59.27 71.96 C 63.32 71.33 67.31 70.34 71.30 69.39 C 73.48 72.96 75.51 76.61 77.71 80.18 C 79.12 76.20 79.37 71.93 79.93 67.78 C 84.05 66.20 88.40 65.36 92.59 64.01 C 89.08 61.59 84.45 60.90 81.29 58.17 C 81.38 54.15 82.24 50.19 82.56 46.19 C 79.68 49.31 76.81 52.44 74.03 55.66 Z" />
<path fill="#fcb813" opacity="1.00" d=" M 114.99 85.84 C 122.72 81.69 132.89 82.76 139.52 88.52 C 144.59 92.65 147.34 99.06 147.61 105.52 C 144.34 105.54 141.07 105.54 137.80 105.53 C 137.48 99.32 132.50 93.38 126.06 93.26 C 119.75 92.61 113.72 97.70 113.01 103.94 C 112.06 109.57 115.90 114.58 120.52 117.30 C 125.98 121.18 131.31 125.27 136.85 129.05 C 141.33 132.58 146.37 135.53 150.01 140.01 C 152.58 143.06 154.41 146.65 155.73 150.40 C 152.52 150.42 149.32 150.43 146.11 150.43 C 144.30 146.63 141.68 143.16 138.12 140.85 C 131.51 136.42 124.89 131.97 118.27 127.56 C 114.98 125.44 111.74 123.22 108.86 120.55 C 105.37 116.57 103.06 111.40 103.15 106.04 C 102.69 97.74 107.64 89.58 114.99 85.84 Z" />
<path fill="#fcb813" opacity="1.00" d=" M 94.50 150.44 C 97.67 150.43 100.84 150.43 104.02 150.43 C 102.84 154.17 101.88 158.07 102.21 162.02 C 102.65 170.81 108.80 178.91 117.02 181.95 C 125.55 185.36 135.96 182.92 142.12 176.11 C 146.26 171.94 148.17 166.12 148.56 160.36 C 151.51 160.35 154.46 160.35 157.41 160.35 C 157.11 171.85 150.77 183.15 140.43 188.48 C 128.08 195.42 111.32 192.67 101.86 182.12 C 93.84 173.87 91.55 161.36 94.50 150.44 Z" />
</g>
<g id="#a80533ff">
<path fill="#a80533" opacity="1.00" d=" M 125.14 0.00 L 129.68 0.00 C 157.77 1.05 185.41 11.84 206.64 30.31 C 232.58 52.39 248.54 85.51 250.00 119.52 L 250.00 130.69 C 248.66 158.19 238.15 185.21 220.16 206.09 C 197.91 232.53 164.23 248.79 129.72 250.00 L 125.15 250.00 C 125.14 242.09 125.16 234.17 125.13 226.26 C 137.79 226.11 150.04 220.82 159.41 212.42 C 172.58 200.68 180.80 184.18 184.59 167.12 C 189.32 145.56 187.49 122.43 178.58 102.18 C 172.80 89.08 163.75 77.11 151.56 69.38 C 143.68 64.41 134.47 61.52 125.13 61.47 C 125.16 40.98 125.14 20.49 125.14 0.00 M 140.80 35.25 C 136.63 34.83 132.75 32.62 128.56 31.99 C 131.06 35.26 133.71 38.41 135.97 41.85 C 133.51 45.21 131.16 48.65 128.69 52.00 C 133.11 51.71 137.25 49.24 141.63 49.35 C 144.55 52.37 147.04 55.78 149.80 58.94 C 150.19 54.73 149.25 50.21 150.25 46.18 C 153.81 44.39 157.87 43.76 161.53 42.17 C 157.60 40.77 153.58 39.63 149.62 38.33 C 149.51 33.48 149.41 28.63 149.24 23.79 C 146.38 27.57 143.74 31.53 140.80 35.25 M 168.73 58.18 C 165.43 60.88 160.78 61.77 157.09 64.06 C 161.34 65.11 165.55 66.33 169.77 67.48 C 170.58 71.66 171.23 75.86 171.89 80.06 C 174.82 76.98 176.32 72.87 178.70 69.39 C 182.70 70.35 186.69 71.35 190.76 71.94 C 188.05 68.93 185.13 66.11 182.64 62.91 C 183.95 58.38 187.34 54.53 189.09 50.06 C 184.68 51.85 180.36 53.82 175.97 55.66 C 173.21 52.44 170.32 49.33 167.46 46.19 C 167.75 50.20 168.61 54.16 168.73 58.18 Z" />
<path fill="#a80533" opacity="1.00" d=" M 120.52 117.30 C 133.40 115.79 146.92 120.38 155.91 129.78 C 153.55 132.08 151.24 134.43 148.96 136.81 C 145.46 133.46 141.36 130.81 136.85 129.05 C 131.31 125.27 125.98 121.18 120.52 117.30 Z" />
<path fill="#a80533" opacity="1.00" d=" M 103.16 123.03 C 104.99 122.13 106.79 120.55 108.86 120.55 C 111.74 123.22 114.98 125.44 118.27 127.56 C 107.82 130.14 98.53 137.49 94.48 147.57 C 88.91 160.45 92.76 176.54 103.52 185.54 C 114.45 195.30 131.94 196.30 143.93 187.88 C 153.02 181.87 158.51 171.19 158.68 160.36 C 158.36 160.36 157.73 160.35 157.41 160.35 C 154.46 160.35 151.51 160.35 148.56 160.36 L 146.19 160.37 C 146.16 157.05 146.27 153.74 146.11 150.43 C 149.32 150.43 152.52 150.42 155.73 150.40 C 159.65 150.38 163.57 150.40 167.50 150.38 C 170.26 162.36 167.77 175.49 160.53 185.46 C 152.60 196.81 138.87 203.84 125.02 203.62 C 113.60 203.66 102.27 198.85 94.35 190.64 C 84.92 181.26 80.33 167.28 82.39 154.15 C 84.06 141.32 92.01 129.55 103.16 123.03 Z" />
</g>
<g id="#332f30ff">
<path fill="#332f30" opacity="1.00" d=" M 108.82 153.30 C 110.14 151.82 111.95 150.93 113.65 149.97 C 113.72 153.36 113.85 156.75 113.68 160.15 C 113.17 160.28 112.15 160.54 111.65 160.67 C 111.61 158.30 111.62 155.94 111.62 153.58 C 110.92 153.51 109.52 153.37 108.82 153.30 Z" />
<path fill="#332f30" opacity="1.00" d=" M 117.53 157.34 C 114.31 155.23 115.30 150.47 118.95 149.52 C 123.69 150.97 123.06 156.85 121.27 160.39 C 118.89 160.93 115.78 161.07 115.34 157.78 C 117.43 158.64 119.71 159.67 120.97 157.18 C 120.11 157.22 118.39 157.30 117.53 157.34 M 117.68 152.66 C 116.41 154.46 119.36 156.66 120.37 154.49 C 121.39 152.56 118.68 150.84 117.68 152.66 Z" />
<path fill="#332f30" opacity="1.00" d=" M 125.27 150.43 C 126.52 149.85 127.96 150.03 129.18 150.61 C 130.99 152.91 130.77 156.26 130.01 158.91 C 129.02 161.81 123.95 161.24 123.70 158.10 C 123.43 155.61 122.89 152.02 125.27 150.43 M 125.97 152.20 C 125.43 154.14 125.40 156.23 125.83 158.20 C 126.43 159.25 128.41 158.87 128.29 157.54 C 128.38 155.57 129.29 151.19 125.97 152.20 Z" />
<path fill="#332f30" opacity="1.00" d=" M 132.05 150.65 C 133.97 150.33 135.92 150.23 137.87 150.20 C 137.88 150.67 137.91 151.62 137.92 152.09 C 136.97 152.20 135.05 152.41 134.10 152.52 C 133.40 151.91 132.71 151.29 132.05 150.65 Z" />
<path fill="#332f30" opacity="1.00" d=" M 131.91 152.32 C 132.43 152.80 132.94 153.27 133.47 153.75 C 136.70 152.35 139.84 155.95 138.00 158.91 C 136.81 162.12 130.59 161.05 131.54 157.32 C 132.69 157.93 133.85 158.50 135.03 159.05 C 136.52 158.48 136.73 156.47 135.62 155.45 C 133.59 155.40 129.23 157.24 131.91 152.32 Z" />
</g>
</svg>

<?xml version="1.0" encoding="utf-8"?>
<!-- Generator: Adobe Illustrator 26.0.3, SVG Export Plug-In . SVG Version: 6.00 Build 0)  -->
<svg version="1.1" id="Layer_1" xmlns="http://www.w3.org/2000/svg" xmlns:xlink="http://www.w3.org/1999/xlink" x="0px" y="0px"
	 viewBox="0 0 250 250" style="enable-background:new 0 0 250 250;" xml:space="preserve">
<style type="text/css">
	.st0{fill:#FFFFFF;}
	.st1{fill:#FCB813;}
	.st2{fill:#A80533;}
	.st3{fill:#332F30;}
</style>
<g id="_x23_ffffffff">
	<path class="st0" d="M100.8,24c2.9,3.7,5.7,7.6,8.4,11.5c4.1-1.1,8.1-2.6,12.2-3.5c-2.2,3-4.6,5.8-6.7,8.8c-1,0.9,0.2,2,0.6,2.8
		c2,2.8,4,5.5,5.9,8.4c-4.2-0.7-8.3-2-12.4-3.1c-3.1,3.2-5.8,6.7-8.7,10c-0.3-4.2,0.6-8.8-0.5-12.8c-3.5-1.8-7.5-2.4-11-3.9
		c3.8-1.7,7.8-2.6,11.7-3.9C100.5,33.5,100.6,28.8,100.8,24z"/>
	<path class="st0" d="M140.8,35.2c2.9-3.7,5.6-7.7,8.4-11.5c0.2,4.8,0.3,9.7,0.4,14.5c4,1.3,8,2.4,11.9,3.8c-3.7,1.6-7.7,2.2-11.3,4
		c-1,4-0.1,8.5-0.4,12.8c-2.8-3.2-5.2-6.6-8.2-9.6c-4.4-0.1-8.5,2.4-12.9,2.7c2.5-3.3,4.8-6.8,7.3-10.2c-2.3-3.4-4.9-6.6-7.4-9.9
		C132.8,32.6,136.6,34.8,140.8,35.2z"/>
	<path class="st0" d="M74,55.7c2.8-3.2,5.7-6.3,8.5-9.5c-0.3,4-1.2,8-1.3,12c3.2,2.7,7.8,3.4,11.3,5.8c-4.2,1.3-8.5,2.2-12.7,3.8
		c-0.6,4.2-0.8,8.4-2.2,12.4c-2.2-3.6-4.2-7.2-6.4-10.8c-4,0.9-8,1.9-12,2.6c2.8-3.1,5.6-6.1,8.4-9.2c-2.1-4.3-4.8-8.3-6.7-12.7
		C65.3,51.8,69.7,53.8,74,55.7z"/>
	<path class="st0" d="M168.7,58.2c-0.1-4-1-8-1.3-12c2.9,3.1,5.8,6.2,8.5,9.5c4.4-1.8,8.7-3.8,13.1-5.6c-1.8,4.5-5.1,8.3-6.4,12.8
		c2.5,3.2,5.4,6,8.1,9c-4.1-0.6-8.1-1.6-12.1-2.6c-2.4,3.5-3.9,7.6-6.8,10.7c-0.7-4.2-1.3-8.4-2.1-12.6c-4.2-1.2-8.4-2.4-12.7-3.4
		C160.8,61.8,165.4,60.9,168.7,58.2z"/>
	<path class="st0" d="M89.4,76.4c9.5-9.1,22.4-15,35.7-14.9c9.3,0,18.5,2.9,26.4,7.9c12.2,7.7,21.2,19.7,27,32.8
		c8.9,20.2,10.7,43.4,6,64.9c-3.8,17.1-12,33.6-25.2,45.3c-9.4,8.4-21.6,13.7-34.3,13.8c-9.1-0.1-18.2-2.7-25.9-7.5
		c-12.6-7.6-21.8-19.9-27.7-33.1c-9.4-21.3-11-45.8-5.3-68.3C70.2,102,77.7,87.2,89.4,76.4 M115,85.8c-7.3,3.7-12.3,11.9-11.8,20.2
		c-0.1,5.4,2.2,10.5,5.7,14.5c-2.1,0-3.9,1.6-5.7,2.5c-11.2,6.5-19.1,18.3-20.8,31.1c-2.1,13.1,2.5,27.1,12,36.5
		c7.9,8.2,19.2,13,30.7,13c13.8,0.2,27.6-6.8,35.5-18.2c7.2-10,9.7-23.1,7-35.1c-3.9,0-7.9,0-11.8,0c-1.3-3.8-3.1-7.3-5.7-10.4
		c-3.6-4.5-8.7-7.4-13.2-11c4.5,1.8,8.6,4.4,12.1,7.8c2.3-2.4,4.6-4.7,6.9-7c-9-9.4-22.5-14-35.4-12.5c-4.6-2.7-8.5-7.7-7.5-13.4
		c0.7-6.2,6.7-11.3,13-10.7c6.4,0.1,11.4,6.1,11.7,12.3c3.3,0,6.5,0,9.8,0c-0.3-6.5-3-12.9-8.1-17C132.9,82.8,122.7,81.7,115,85.8z"
		/>
	<path class="st0" d="M94.5,147.6c4-10.1,13.3-17.4,23.8-20c6.6,4.4,13.2,8.9,19.8,13.3c3.6,2.3,6.2,5.8,8,9.6
		c0.2,3.3,0.1,6.6,0.1,9.9l2.4,0c-0.4,5.8-2.3,11.6-6.4,15.8c-6.2,6.8-16.6,9.2-25.1,5.8c-8.2-3-14.4-11.1-14.8-19.9
		c-0.3-3.9,0.6-7.9,1.8-11.6c-3.2,0-6.3,0-9.5,0c-2.9,10.9-0.7,23.4,7.4,31.7c9.5,10.6,26.2,13.3,38.6,6.4
		c10.3-5.3,16.7-16.6,17-28.1c0.3,0,0.9,0,1.3,0c-0.2,10.8-5.7,21.5-14.8,27.5c-12,8.4-29.5,7.4-40.4-2.3
		C92.8,176.5,88.9,160.4,94.5,147.6 M108.8,153.3c0.7,0.1,2.1,0.2,2.8,0.3c0,2.4,0,4.7,0,7.1c0.5-0.1,1.5-0.4,2-0.5
		c0.2-3.4,0-6.8,0-10.2C111.9,150.9,110.1,151.8,108.8,153.3 M117.5,157.3c0.9,0,2.6-0.1,3.4-0.2c-1.3,2.5-3.5,1.5-5.6,0.6
		c0.4,3.3,3.6,3.1,5.9,2.6c1.8-3.5,2.4-9.4-2.3-10.9C115.3,150.5,114.3,155.2,117.5,157.3 M125.3,150.4c-2.4,1.6-1.8,5.2-1.6,7.7
		c0.2,3.1,5.3,3.7,6.3,0.8c0.8-2.7,1-6-0.8-8.3C128,150,126.5,149.9,125.3,150.4 M132.1,150.6c0.7,0.6,1.3,1.3,2.1,1.9
		c0.9-0.1,2.9-0.3,3.8-0.4c0-0.5,0-1.4-0.1-1.9C135.9,150.2,134,150.3,132.1,150.6 M131.9,152.3c-2.7,4.9,1.7,3.1,3.7,3.1
		c1.1,1,0.9,3-0.6,3.6c-1.2-0.6-2.3-1.1-3.5-1.7c-0.9,3.7,5.3,4.8,6.5,1.6c1.8-3-1.3-6.6-4.5-5.2
		C132.9,153.3,132.4,152.8,131.9,152.3z"/>
	<path class="st0" d="M117.7,152.7c1-1.8,3.7-0.1,2.7,1.8C119.4,156.7,116.4,154.5,117.7,152.7z"/>
	<path class="st0" d="M126,152.2c3.3-1,2.4,3.4,2.3,5.3c0.1,1.3-1.9,1.7-2.5,0.7C125.4,156.2,125.4,154.1,126,152.2z"/>
</g>
<g id="_x23_fcb813ff">
	<path class="st1" d="M117.6,0h7.5c0,20.5,0,41,0,61.5c-13.3,0-26.2,5.8-35.7,14.9C77.7,87.2,70.2,102,66.2,117.3
		c-5.7,22.5-4.1,47,5.3,68.3c5.9,13.3,15.2,25.5,27.7,33.1c7.8,4.8,16.8,7.4,25.9,7.5c0,7.9,0,15.8,0,23.7h-6.7
		c-27.9-1.7-55.3-12.6-76.2-31.3C17,196.7,1.5,164.1,0,130.6v-13.1C1.2,103,4.4,88.6,10.3,75.2c12.1-28.2,35.1-51.5,63-64.1
		C87.2,4.7,102.4,1.2,117.6,0 M100.8,24c-0.2,4.8-0.3,9.6-0.4,14.3c-3.9,1.3-7.9,2.3-11.7,3.9c3.6,1.5,7.6,2.1,11,3.9
		c1.1,4,0.1,8.6,0.5,12.8c2.9-3.4,5.6-6.9,8.7-10c4.1,1.1,8.2,2.4,12.4,3.1c-1.9-2.9-4-5.6-5.9-8.4c-0.4-0.8-1.6-1.9-0.6-2.8
		c2.1-3,4.5-5.8,6.7-8.8c-4.1,0.9-8.1,2.4-12.2,3.5C106.5,31.6,103.7,27.7,100.8,24 M74,55.7c-4.4-1.8-8.7-3.8-13.1-5.6
		c2,4.4,4.6,8.4,6.7,12.7c-2.8,3.1-5.6,6.1-8.4,9.2c4-0.6,8-1.6,12-2.6c2.2,3.6,4.2,7.2,6.4,10.8c1.4-4,1.7-8.2,2.2-12.4
		c4.1-1.6,8.5-2.4,12.7-3.8c-3.5-2.4-8.1-3.1-11.3-5.8c0.1-4,0.9-8,1.3-12C79.7,49.3,76.8,52.4,74,55.7z"/>
	<path class="st1" d="M115,85.8c7.7-4.1,17.9-3.1,24.5,2.7c5.1,4.1,7.8,10.5,8.1,17c-3.3,0-6.5,0-9.8,0c-0.3-6.2-5.3-12.2-11.7-12.3
		c-6.3-0.7-12.3,4.4-13,10.7c-1,5.6,2.9,10.6,7.5,13.4c5.5,3.9,10.8,8,16.3,11.8c4.5,3.5,9.5,6.5,13.2,11c2.6,3.1,4.4,6.6,5.7,10.4
		c-3.2,0-6.4,0-9.6,0c-1.8-3.8-4.4-7.3-8-9.6c-6.6-4.4-13.2-8.9-19.8-13.3c-3.3-2.1-6.5-4.3-9.4-7c-3.5-4-5.8-9.2-5.7-14.5
		C102.7,97.7,107.6,89.6,115,85.8z"/>
	<path class="st1" d="M94.5,150.4c3.2,0,6.3,0,9.5,0c-1.2,3.7-2.1,7.6-1.8,11.6c0.4,8.8,6.6,16.9,14.8,19.9c8.5,3.4,18.9,1,25.1-5.8
		c4.1-4.2,6.1-10,6.4-15.8c2.9,0,5.9,0,8.9,0c-0.3,11.5-6.6,22.8-17,28.1c-12.3,6.9-29.1,4.2-38.6-6.4
		C93.8,173.9,91.6,161.4,94.5,150.4z"/>
</g>
<g id="_x23_a80533ff">
	<path class="st2" d="M125.1,0h4.5c28.1,1,55.7,11.8,77,30.3c25.9,22.1,41.9,55.2,43.4,89.2v11.2c-1.3,27.5-11.9,54.5-29.8,75.4
		c-22.2,26.4-55.9,42.7-90.4,43.9h-4.6c0-7.9,0-15.8,0-23.7c12.7-0.1,24.9-5.4,34.3-13.8c13.2-11.7,21.4-28.2,25.2-45.3
		c4.7-21.6,2.9-44.7-6-64.9c-5.8-13.1-14.8-25.1-27-32.8c-7.9-5-17.1-7.9-26.4-7.9C125.2,41,125.1,20.5,125.1,0 M140.8,35.2
		c-4.2-0.4-8.1-2.6-12.2-3.3c2.5,3.3,5.2,6.4,7.4,9.9c-2.5,3.4-4.8,6.8-7.3,10.2c4.4-0.3,8.6-2.8,12.9-2.7c2.9,3,5.4,6.4,8.2,9.6
		c0.4-4.2-0.6-8.7,0.4-12.8c3.6-1.8,7.6-2.4,11.3-4c-3.9-1.4-7.9-2.5-11.9-3.8c-0.1-4.9-0.2-9.7-0.4-14.5
		C146.4,27.6,143.7,31.5,140.8,35.2 M168.7,58.2c-3.3,2.7-7.9,3.6-11.6,5.9c4.2,1.1,8.5,2.3,12.7,3.4c0.8,4.2,1.5,8.4,2.1,12.6
		c2.9-3.1,4.4-7.2,6.8-10.7c4,1,8,2,12.1,2.6c-2.7-3-5.6-5.8-8.1-9c1.3-4.5,4.7-8.4,6.4-12.8c-4.4,1.8-8.7,3.8-13.1,5.6
		c-2.8-3.2-5.6-6.3-8.5-9.5C167.8,50.2,168.6,54.2,168.7,58.2z"/>
	<path class="st2" d="M120.5,117.3c12.9-1.5,26.4,3.1,35.4,12.5c-2.4,2.3-4.7,4.6-6.9,7c-3.5-3.3-7.6-6-12.1-7.8
		C131.3,125.3,126,121.2,120.5,117.3z"/>
	<path class="st2" d="M103.2,123c1.8-0.9,3.6-2.5,5.7-2.5c2.9,2.7,6.1,4.9,9.4,7c-10.4,2.6-19.7,9.9-23.8,20c-5.6,12.9-1.7,29,9,38
		c10.9,9.8,28.4,10.8,40.4,2.3c9.1-6,14.6-16.7,14.8-27.5c-0.3,0-0.9,0-1.3,0c-2.9,0-5.9,0-8.9,0l-2.4,0c0-3.3,0.1-6.6-0.1-9.9
		c3.2,0,6.4,0,9.6,0c3.9,0,7.8,0,11.8,0c2.8,12,0.3,25.1-7,35.1c-7.9,11.3-21.7,18.4-35.5,18.2c-11.4,0-22.8-4.8-30.7-13
		c-9.4-9.4-14-23.4-12-36.5C84.1,141.3,92,129.6,103.2,123z"/>
</g>
<g id="_x23_332f30ff">
	<path class="st3" d="M108.8,153.3c1.3-1.5,3.1-2.4,4.8-3.3c0.1,3.4,0.2,6.8,0,10.2c-0.5,0.1-1.5,0.4-2,0.5c0-2.4,0-4.7,0-7.1
		C110.9,153.5,109.5,153.4,108.8,153.3z"/>
	<path class="st3" d="M117.5,157.3c-3.2-2.1-2.2-6.9,1.4-7.8c4.7,1.4,4.1,7.3,2.3,10.9c-2.4,0.5-5.5,0.7-5.9-2.6
		c2.1,0.9,4.4,1.9,5.6-0.6C120.1,157.2,118.4,157.3,117.5,157.3 M117.7,152.7c-1.3,1.8,1.7,4,2.7,1.8
		C121.4,152.6,118.7,150.8,117.7,152.7z"/>
	<path class="st3" d="M125.3,150.4c1.2-0.6,2.7-0.4,3.9,0.2c1.8,2.3,1.6,5.6,0.8,8.3c-1,2.9-6.1,2.3-6.3-0.8
		C123.4,155.6,122.9,152,125.3,150.4 M126,152.2c-0.5,1.9-0.6,4-0.1,6c0.6,1.1,2.6,0.7,2.5-0.7C128.4,155.6,129.3,151.2,126,152.2z"
		/>
	<path class="st3" d="M132.1,150.6c1.9-0.3,3.9-0.4,5.8-0.4c0,0.5,0,1.4,0.1,1.9c-0.9,0.1-2.9,0.3-3.8,0.4
		C133.4,151.9,132.7,151.3,132.1,150.6z"/>
	<path class="st3" d="M131.9,152.3c0.5,0.5,1,0.9,1.6,1.4c3.2-1.4,6.4,2.2,4.5,5.2c-1.2,3.2-7.4,2.1-6.5-1.6
		c1.2,0.6,2.3,1.2,3.5,1.7c1.5-0.6,1.7-2.6,0.6-3.6C133.6,155.4,129.2,157.2,131.9,152.3z"/>
</g>
</svg>
